X:1
T:Common as Muck
T:Waterddy Lane
M:4/4
L:1/8
P: AABABABABABABB
K:G
"Am" c>e A>c "G" B>d G>B| "Am" A2 A2 "G" G4||
P:A
| "G" g2d2 "C" B>c d>B| "C" c>d e>c "C" B>c d2| "G" g2d2 "C" B>c d>B| "C" e>d c>B "C" A2 (3def|
"G" g2d2 "C" B>c d>B| "C" c>d e>c "C" B>c d2| "Am" c>e A>c "G" B>d G>B| "Am" A2 A2 "G" G4|
P:B
|"C" g>f e>f "G" g2 d2| "C" e>d c>e "G" d4| "C" e>d c>e "G" d>B G>B| "D" A>G F>G "Am" A4|
"C" g>f e>f "G" g2 d2| "C" e>d c>e "G" d4| "C" c>d e>f "G" g>e d>c| "Bm" B2 A2 "G" G4||

